!!!SOCIAL_FUNCTION:	parade songs
!!!PDT:	1922
!!!OTL: No_83_Parade_Song_(a).krn
!!!REG: Southwest
!!!LANG: Non-Tone
!!!LING_GROUP: Uto-Aztecan
**kern
*staff1
=1-
*clefF4
*k[f#c#g#d#]
*M2/4
8B\L
8F#\J
4B\
=2||
*M3/4
2B\
4B\
=3
8c#\L
8B\J
4B\
12c#\L
12B\
12c#\J
=4||
*M2/4
8B\L
8c#\J
16B\LL
16A\
16A\
16A\JJ
=5
8F#\L
8G#\J
16F#\LL
16E\
16E\
16D#\JJ
=6
4E\
4BB/
=7||
*M3/4
12F#\L
12E\
12E\J
4E\
12B\L
12A\
12B\J
=8||
*M2/4
8A\L
8B\J
16A\LL
16F#\
16F#\
16E\JJ
=9
8E\L
8F#\J
4E\
=10||
*M3/4
8BB/L
[8BB/J
8BB/L]
8BB/J
4BB/
==
*-
